assets/Ok hand/Dark/Flat/ok_hand_flat_dark.svg

<svg width="32" height="32" viewBox="0 0 32 32" fill="none" xmlns="http://www.w3.org/2000/svg">
<path d="M25.2186 18.9999C25.2186 14.8199 25.2643 10.4599 25.2643 6.27993C25.2643 5.01993 24.2443 3.99993 22.9843 3.99993C21.2499 3.99993 20.5077 5.44524 20.5936 7.38274L19.5703 3.7265C19.3203 2.87493 18.25 1.82803 16.7734 2.164C15.5634 2.494 14.8206 3.74088 15.1406 4.96088L15.8984 7.99994L13.0625 3.44525C12.4325 2.35525 10.8714 1.99167 9.64062 2.70306C8.55062 3.33306 8.17188 4.99994 8.82812 6.1015L12.5547 12.2031C9.73438 13.1406 7.64857 15.1246 6.83594 17.4374C6.31336 18.9248 7.58884 20.7048 9.13949 20.7048C11.0728 20.7048 11.4104 18.8641 12.5781 17.8593C13.2681 17.2593 14.2288 16.9074 15.2188 16.9374C17.1588 17.0074 18.8319 18.56 18.9219 20.51C19.0219 22.67 17.2706 24.6093 15.1406 24.6093C13.6406 24.6093 11.9101 23.5132 11.3827 22.1171C11.0452 21.2237 9.98732 20.7031 9.03117 20.7031C7.50117 20.7031 6.35928 22.2812 6.81252 23.8437C8.03252 27.4937 11.5236 29.8537 15.5936 29.8437C20.5836 29.8137 25.2186 25.3593 25.2186 18.9999Z" fill="#573739"/>
<path d="M16.406 2.29834C15.4182 2.7574 14.8545 3.8699 15.1406 4.96091L15.844 7.78158L17.5 10.5L16.1563 4.57808C16.0139 4.00416 15.905 2.86703 16.406 2.29834Z" fill="#341A1C"/>
<path d="M9.23253 3.01728C8.4661 3.7804 8.26203 5.1513 8.82813 6.10154L12.5499 12.1953C13.4879 11.9218 14.5029 11.9218 15.6406 11.9218C14.5938 11.6875 13.407 11.3806 12.7041 10.5C12.0012 9.61931 9.57817 5.42183 9.57817 5.42183C9.21579 4.87613 8.75151 3.77068 9.23253 3.01728Z" fill="#341A1C"/>
<path d="M20.5879 7.19623C20.5629 5.71484 21.042 4.54986 22.1026 4.14973C21.6994 4.64619 21.5869 5.48728 21.5938 5.99997L21.4063 10.5L20.5879 7.19623Z" fill="#341A1C"/>
</svg>

<svg xmlns="http://www.w3.org/2000/svg" width="32" height="32" fill="none"><path fill="#573739" d="M25.219 19c0-4.18.045-8.54.045-12.72 0-1.26-1.02-2.28-2.28-2.28-1.734 0-2.476 1.445-2.39 3.383L19.57 3.727c-.25-.852-1.32-1.899-2.797-1.563-1.21.33-1.952 1.577-1.632 2.797L15.898 8l-2.835-4.555c-.63-1.09-2.192-1.453-3.422-.742-1.09.63-1.47 2.297-.813 3.398l3.727 6.102c-2.82.938-4.906 2.922-5.72 5.234-.522 1.488.754 3.268 2.304 3.268 1.934 0 2.271-1.84 3.44-2.846.69-.6 1.65-.952 2.64-.922 1.94.07 3.613 1.623 3.703 3.573.1 2.16-1.651 4.1-3.781 4.1-1.5 0-3.23-1.097-3.758-2.493-.338-.893-1.396-1.414-2.352-1.414-1.53 0-2.672 1.578-2.218 3.14 1.22 3.65 4.71 6.01 8.78 6 4.99-.03 9.626-4.484 9.626-10.843Z"/><path fill="#341A1C" d="M16.406 2.298c-.988.46-1.551 1.572-1.265 2.663l.703 2.82L17.5 10.5l-1.344-5.922c-.142-.574-.251-1.711.25-2.28ZM9.233 3.017c-.767.763-.971 2.134-.405 3.085l3.722 6.093c.938-.273 1.953-.273 3.09-.273-1.046-.235-2.233-.541-2.936-1.422-.703-.88-3.126-5.078-3.126-5.078-.362-.546-.826-1.651-.345-2.405ZM20.588 7.196c-.025-1.481.454-2.646 1.515-3.046-.404.496-.516 1.337-.51 1.85l-.187 4.5-.818-3.304Z"/></svg>
